X: 23742
T: Little Beggarman, The
R: reel
M: 4/4
K: Amixolydian
|:"A"EAAG ABcd|efec "D"d2 cd|"A"e2A2 ABcA|"G"B=GEF G2 FG|
"A"EAAG ABcd|efec "D"d2 cd|"A"e2a2 "G"afed|c2A2 "A"A4:|
|:"G"gfga gfef|gfec "D"d2 cd|"A"e2A2 ABcA|"G"B=GEF G2 FG|
"A"EAAG ABcd|efec "D"d2 cd|"A"e=gab "G"aged|cAB=G "A"A4:|

